X:42
T:[untitled] (this seems a dancing tune)
Z:Jack Campin - http://www.campin.me.uk
S:Blaikie MS (NLS MS.1578) p15
N:Blaikie #41
M:2/4
L:1/8
V:1 midi program 1 74
V:2 midi program 1 46 bass middle = d transpose -24
Q:1/4=120
K:D Mixolydian
[V:1] G>FEE|EGBG|F>E``````DD|DF`AF|G>FEE|EGBG|F>EDD|DF`AF||
[V:2] e2 e2|e2e2|d2       d2|d2 d2|e2 e2|e2e2|d2 d2|d2 d2||
%
[V:1] G>ABB|Bdee|G/A/B/c/ dB|A>GFA|G>ABB|Bdee|d>edB|A>GFA|]
[V:2] G2 g2|G2g2|G2       g2|d2 D2|G2 g2|G2g2|G2 g2|d'2d2|]
W:Transcription (c) Jack Campin 2009, no mirroring or republication without permission

